icons/actions/22/distribute-remove-overlaps.svg

<?xml version="1.0"?>
<!-- Created with Inkscape (http://www.inkscape.org/) -->
<svg xmlns:dc="http://purl.org/dc/elements/1.1/" xmlns:cc="http://creativecommons.org/ns#" xmlns:rdf="http://www.w3.org/1999/02/22-rdf-syntax-ns#" xmlns:svg="http://www.w3.org/2000/svg" xmlns="http://www.w3.org/2000/svg" xmlns:xlink="http://www.w3.org/1999/xlink" xmlns:sodipodi="http://sodipodi.sourceforge.net/DTD/sodipodi-0.dtd" xmlns:inkscape="http://www.inkscape.org/namespaces/inkscape" width="22" height="22" id="svg3869" version="1.1" inkscape:version="0.91 r13725" sodipodi:docname="distribute-remove-overlaps.svg">
  <defs id="defs3871">
    <style type="text/css" id="current-color-scheme">
      .ColorScheme-Text {
        color:#4d4d4d;
      }
      .ColorScheme-Background {
        color:#eff0f1;
      }
      .ColorScheme-Highlight {
        color:#3daee9;
      }
      .ColorScheme-ViewText {
        color:#31363b;
      }
      .ColorScheme-ViewBackground {
        color:#fcfcfc;
      }
      .ColorScheme-ViewHover {
        color:#93cee9;
      }
      .ColorScheme-ViewFocus{
        color:#3daee9;
      }
      .ColorScheme-ButtonText {
        color:#31363b;
      }
      .ColorScheme-ButtonBackground {
        color:#eff0f1;
      }
      .ColorScheme-ButtonHover {
        color:#93cee9;
      }
      .ColorScheme-ButtonFocus{
        color:#3daee9;
      }
      </style>
    <linearGradient id="linearGradient4300-8" inkscape:collect="always">
      <stop id="stop4302-5" offset="0" style="stop-color:#f27935;stop-opacity:1"/>
      <stop id="stop4304-7" offset="1" style="stop-color:#f2784b;stop-opacity:1"/>
    </linearGradient>
    <linearGradient inkscape:collect="always" xlink:href="#linearGradient4351" id="linearGradient4357" x1="47" y1="61" x2="47" y2="47" gradientUnits="userSpaceOnUse"/>
    <linearGradient inkscape:collect="always" id="linearGradient4410">
      <stop style="stop-color:#383e51;stop-opacity:1" offset="0" id="stop4412"/>
      <stop style="stop-color:#655c6f;stop-opacity:0" offset="1" id="stop4414"/>
    </linearGradient>
    <linearGradient gradientTransform="matrix(1,0,0,-1,-14,78)" inkscape:collect="always" xlink:href="#linearGradient4410" id="linearGradient4427" x1="54" y1="31" x2="40" y2="17" gradientUnits="userSpaceOnUse"/>
    <linearGradient inkscape:collect="always" xlink:href="#linearGradient4300-8" id="linearGradient4306" x1="32" y1="61" x2="32" y2="3" gradientUnits="userSpaceOnUse"/>
    <linearGradient inkscape:collect="always" id="linearGradient4351">
      <stop style="stop-color:#f7ab89;stop-opacity:1" offset="0" id="stop4353"/>
      <stop style="stop-color:#f9bda3;stop-opacity:1" offset="1" id="stop4355"/>
    </linearGradient>
    <linearGradient y2="17" x2="40" y1="31" x1="54" gradientTransform="matrix(1,0,0,-1,503.93261,656.69754)" gradientUnits="userSpaceOnUse" id="linearGradient3444" xlink:href="#linearGradient4410" inkscape:collect="always"/>
    <linearGradient gradientTransform="translate(517.93261,578.69754)" y2="47" x2="47" y1="61" x1="47" gradientUnits="userSpaceOnUse" id="linearGradient3447" xlink:href="#linearGradient4351" inkscape:collect="always"/>
    <linearGradient gradientTransform="translate(517.93261,578.69754)" y2="3" x2="32" y1="61" x1="32" gradientUnits="userSpaceOnUse" id="linearGradient3452" xlink:href="#linearGradient4300-8" inkscape:collect="always"/>
  </defs>
  <sodipodi:namedview id="base" pagecolor="#ffffff" bordercolor="#666666" borderopacity="1.0" inkscape:pageopacity="0.0" inkscape:pageshadow="2" inkscape:zoom="22.627416" inkscape:cx="5.4042324" inkscape:cy="12.032563" inkscape:document-units="px" inkscape:current-layer="layer1" showgrid="true" fit-margin-top="0" fit-margin-left="0" fit-margin-right="0" fit-margin-bottom="0" inkscape:window-width="1920" inkscape:window-height="1021" inkscape:window-x="-4" inkscape:window-y="0" inkscape:window-maximized="1" inkscape:showpageshadow="false" inkscape:snap-bbox="true" inkscape:object-nodes="true">
    <inkscape:grid type="xygrid" id="grid4132"/>
    <sodipodi:guide position="2,20.000017" orientation="18,0" id="guide4138"/>
    <sodipodi:guide position="2,2.0000174" orientation="0,18" id="guide4140"/>
    <sodipodi:guide position="20,2.0000174" orientation="-18,0" id="guide4142"/>
    <sodipodi:guide position="20,20.000017" orientation="0,-18" id="guide4144"/>
    <sodipodi:guide position="3,19.000017" orientation="16,0" id="guide4146"/>
    <sodipodi:guide position="3,3.0000174" orientation="0,16" id="guide4148"/>
    <sodipodi:guide position="19,3.0000174" orientation="-16,0" id="guide4150"/>
    <sodipodi:guide position="19,19.000017" orientation="0,-16" id="guide4152"/>
  </sodipodi:namedview>
  <metadata id="metadata3874">
    <rdf:RDF>
      <cc:Work rdf:about="">
        <dc:format>image/svg+xml</dc:format>
        <dc:type rdf:resource="http://purl.org/dc/dcmitype/StillImage"/>
        <dc:title/>
      </cc:Work>
    </rdf:RDF>
  </metadata>
  <g inkscape:label="Capa 1" inkscape:groupmode="layer" id="layer1" transform="translate(-326,-534.3622)">
    <g transform="translate(326,-496.00002)" id="layer1-2" inkscape:label="Capa 1">
      <g inkscape:label="Capa 1" id="layer1-7" transform="translate(-378.85714,490.28575)">
        <path inkscape:connector-curvature="0" style="fill:currentColor;fill-opacity:1;stroke:none" d="M 3,3 3,7 7,7 7,3 3,3 Z M 4,4 6,4 6,6 4,6 4,4 Z" transform="translate(378.85714,540.07647)" id="rect3159-1" class="ColorScheme-Text"/>
        <path inkscape:connector-curvature="0" style="fill:currentColor;fill-opacity:1;stroke:none" d="M 3,8 3,19 7,19 7,8 3,8 Z m 1,1 2,0 0,9 -2,0 0,-9 z" transform="translate(378.85714,540.07647)" id="rect3159-14" class="ColorScheme-Text"/>
        <path inkscape:connector-curvature="0" style="fill:currentColor;fill-opacity:1;stroke:none" d="M 8,3 8,19 14,19 14,3 8,3 Z M 9,4 13,4 13,18 9,18 9,4 Z" transform="translate(378.85714,540.07647)" id="rect3159-14-0" class="ColorScheme-Text"/>
        <path inkscape:connector-curvature="0" style="fill:currentColor;fill-opacity:1;stroke:none" d="m 15,3 0,16 4,0 0,-16 -4,0 z m 1,1 2,0 0,14 -2,0 0,-14 z" transform="translate(378.85714,540.07647)" id="rect3159-14-0-3" class="ColorScheme-Text"/>
      </g>
    </g>
  </g>
</svg>

<svg xmlns="http://www.w3.org/2000/svg" viewBox="0 0 22 22">
  <defs id="defs3051">
    <style type="text/css" id="current-color-scheme">
      .ColorScheme-Text {
        color:#4d4d4d;
      }
      </style>
  </defs>
 <path 
    style="fill:currentColor;fill-opacity:1;stroke:none" 
   d="M 3 3 L 3 7 L 7 7 L 7 3 L 3 3 z M 8 3 L 8 19 L 14 19 L 14 3 L 8 3 z M 15 3 L 15 19 L 19 19 L 19 3 L 15 3 z M 4 4 L 6 4 L 6 6 L 4 6 L 4 4 z M 9 4 L 13 4 L 13 18 L 9 18 L 9 4 z M 16 4 L 18 4 L 18 18 L 16 18 L 16 4 z M 3 8 L 3 19 L 7 19 L 7 8 L 3 8 z M 4 9 L 6 9 L 6 18 L 4 18 L 4 9 z "
    class="ColorScheme-Text"
    />
</svg>
